packages/sights/assets/overlays/LDRoAPnk.svg

<svg width="500" height="375" viewBox="0 0 500 375" fill="none" xmlns="http://www.w3.org/2000/svg">
<path d="M130.94 5.62988L64.9398 51.2899L49.3398 55.4099L19.5398 76.5099V81.0999L23.6598 119.62L27.7898 125.12L14.0298 159.52L17.2398 174.65L29.1698 231.06L35.1698 238.85C35.1698 238.85 119.09 303.97 161.28 321.85C161.28 321.85 247.48 355.79 291.52 355.79C293.82 355.79 346.1 343.86 359.86 331.48L369.94 319.56C369.94 319.56 426.35 152.63 449.28 165.93C449.28 165.93 459.83 167.76 443.28 231.93C443.28 231.93 482.6 190.2 486.56 182.86" stroke="white" stroke-miterlimit="10"/>
<path d="M430.884 283.547C441.62 242.478 443.51 207.404 435.105 205.207C426.7 203.01 411.183 234.521 400.447 275.59C389.711 316.659 387.822 351.732 396.227 353.93C404.632 356.127 420.149 324.615 430.884 283.547Z" stroke="white" stroke-miterlimit="10"/>
<path d="M429.97 179.94C429.97 179.94 445.5 179.8 440.17 229.66" stroke="white" stroke-miterlimit="10"/>
<path d="M330.53 345.37L333.03 347.69L376.75 370.13H391.43C391.43 370.13 408.12 354.41 416.43 326.75" stroke="white" stroke-miterlimit="10"/>
<path d="M448.37 210.11L486.53 171.21" stroke="white" stroke-miterlimit="10"/>
<path d="M476.56 195.45L478.1 197.73L486.53 199.26" stroke="white" stroke-miterlimit="10"/>
<path d="M413.44 5L411.61 42.57L412.52 46.24C412.52 46.24 474.52 60.92 486.52 75.36" stroke="white" stroke-miterlimit="10"/>
<path d="M464.35 5.62988C464.35 5.62988 471.45 14.6299 474.21 23.5399L486.53 58.1699" stroke="white" stroke-miterlimit="10"/>
<path d="M64.9102 51.2899C64.9102 51.2899 213.69 24.8899 332.04 31.8999H347.1L351.1 30.7099L362.69 5.62988" stroke="white" stroke-miterlimit="10"/>
<path d="M149.9 69.4801V75.5901C149.9 75.5901 164.27 105.86 175.28 108.59C175.28 108.59 178.03 111.04 216.55 111.65C225.125 112.16 233.196 115.867 239.17 122.04L255.07 132.13C255.07 132.13 355.35 138.86 362.69 132.13C362.69 132.13 377.98 99.1301 384.4 73.7401V68.2501C384.4 68.2501 372.47 62.4501 366.4 61.5301C366.4 61.5301 247.16 48.6901 175.93 59.3901C175.89 59.3901 152.96 63.0601 149.9 69.4801Z" stroke="white" stroke-miterlimit="10"/>
<path d="M27.1899 71.0698L24.7799 75.5898L30.2799 81.3198C30.2799 81.3198 27.2799 96.6898 26.3799 98.9798C26.3799 98.9798 21.5999 100.63 21.3799 98.9798" stroke="white" stroke-miterlimit="10"/>
<path d="M255.07 132.15V165C255.07 165 208.91 209 196.52 214.53C196.52 214.53 186.44 219.53 164.88 214.53C164.88 214.53 64.45 193.89 14 159.53" stroke="white" stroke-miterlimit="10"/>
<path d="M27.7598 125.12L33.7598 151.12C34.5403 153.094 35.9451 154.759 37.7598 155.86C37.7598 155.86 118.76 190.61 213.86 202.12" stroke="white" stroke-miterlimit="10"/>
<path d="M39.9897 187.5L41.5197 212.71L42.8897 214.85L114.44 252.92L115.96 250.62V219.44" stroke="white" stroke-miterlimit="10"/>
<path d="M24.29 208.12L23.17 183.67C23.17 183.67 23.02 178.52 27.76 180.67C27.76 180.67 52.07 194.79 123 222.61C123 222.61 132.78 221.85 180 290.61C180 290.61 202.48 315.51 222.65 326.68C222.65 326.68 257.42 336.92 302.45 337.84" stroke="white" stroke-miterlimit="10"/>
<path d="M180.01 290.68C180.01 290.68 310.26 333.78 376.75 282.88" stroke="white" stroke-miterlimit="10"/>
<path d="M327.5 31.6499L305.9 56.8599" stroke="white" stroke-miterlimit="10"/>
<path d="M35.1001 75.3599C35.1001 75.3599 120.86 69.1699 144.24 69.1699" stroke="white" stroke-miterlimit="10"/>
</svg>

<svg width="500" height="375" fill="none" xmlns="http://www.w3.org/2000/svg"><path d="m130.94 5.63-66 45.66-15.6 4.12-29.8 21.1v4.59l4.12 38.52 4.13 5.5-13.76 34.4 3.21 15.13 11.93 56.41 6 7.79s83.92 65.12 126.11 83c0 0 86.2 33.94 130.24 33.94 2.3 0 54.58-11.93 68.34-24.31l10.08-11.92s56.41-166.93 79.34-153.63c0 0 10.55 1.83-6 66 0 0 39.32-41.73 43.28-49.07" stroke="#fff" stroke-miterlimit="10"/><path d="M430.884 283.547c10.736-41.069 12.626-76.143 4.221-78.34-8.405-2.197-23.922 29.314-34.658 70.383-10.736 41.069-12.625 76.142-4.22 78.34 8.405 2.197 23.922-29.315 34.657-70.383Z" stroke="#fff" stroke-miterlimit="10"/><path d="M429.97 179.94s15.53-.14 10.2 49.72M330.53 345.37l2.5 2.32 43.72 22.44h14.68s16.69-15.72 25-43.38M448.37 210.11l38.16-38.9M476.56 195.45l1.54 2.28 8.43 1.53M413.44 5l-1.83 37.57.91 3.67s62 14.68 74 29.12M464.35 5.63s7.1 9 9.86 17.91l12.32 34.63M64.91 51.29s148.78-26.4 267.13-19.39h15.06l4-1.19 11.59-25.08M149.9 69.48v6.11s14.37 30.27 25.38 33c0 0 2.75 2.45 41.27 3.06a34.311 34.311 0 0 1 22.62 10.39l15.9 10.09s100.28 6.73 107.62 0c0 0 15.29-33 21.71-58.39v-5.49s-11.93-5.8-18-6.72c0 0-119.24-12.84-190.47-2.14-.04 0-22.97 3.67-26.03 10.09ZM27.19 71.07l-2.41 4.52 5.5 5.73s-3 15.37-3.9 17.66c0 0-4.78 1.65-5 0M255.07 132.15V165s-46.16 44-58.55 49.53c0 0-10.08 5-31.64 0 0 0-100.43-20.64-150.88-55" stroke="#fff" stroke-miterlimit="10"/><path d="m27.76 125.12 6 26a9.728 9.728 0 0 0 4 4.74s81 34.75 176.1 46.26M39.99 187.5l1.53 25.21 1.37 2.14 71.55 38.07 1.52-2.3v-31.18" stroke="#fff" stroke-miterlimit="10"/><path d="m24.29 208.12-1.12-24.45s-.15-5.15 4.59-3c0 0 24.31 14.12 95.24 41.94 0 0 9.78-.76 57 68 0 0 22.48 24.9 42.65 36.07 0 0 34.77 10.24 79.8 11.16" stroke="#fff" stroke-miterlimit="10"/><path d="M180.01 290.68s130.25 43.1 196.74-7.8M327.5 31.65l-21.6 25.21M35.1 75.36s85.76-6.19 109.14-6.19" stroke="#fff" stroke-miterlimit="10"/></svg>
